icons/alarm.svg

<svg xmlns="http://www.w3.org/2000/svg" width="24" height="24" viewBox="0 0 24 24">
  <path d="M12,2 C17.5228475,2 22,6.4771525 22,12 C22,14.9100804 20.7569582,17.5298327 18.7728753,19.3572563 L20.2071068,20.7928932 C20.5976311,21.1834175 20.5976311,21.8165825 20.2071068,22.2071068 C19.8466228,22.5675907 19.2793918,22.5953203 18.8871006,22.2902954 L18.7928932,22.2071068 L17.1555243,20.5703261 C15.6500628,21.4778912 13.8860039,22 12,22 C10.1139961,22 8.34993716,21.4778912 6.84447569,20.5703261 L5.20710678,22.2071068 C4.81658249,22.5976311 4.18341751,22.5976311 3.79289322,22.2071068 C3.43240926,21.8466228 3.40467972,21.2793918 3.70970461,20.8871006 L3.79289322,20.7928932 L5.22712472,19.3572563 C3.24304184,17.5298327 2,14.9100804 2,12 C2,6.4771525 6.4771525,2 12,2 Z M12,6 C11.4477153,6 11,6.44771525 11,7 L11,7 L11,12 L11.0086724,12.131444 C11.0374017,12.3481451 11.1366129,12.5508265 11.2928932,12.7071068 L11.2928932,12.7071068 L14.2928932,15.7071068 L14.3871006,15.7902954 C14.7793918,16.0953203 15.3466228,16.0675907 15.7071068,15.7071068 L15.7071068,15.7071068 L15.7902954,15.6128994 C16.0953203,15.2206082 16.0675907,14.6533772 15.7071068,14.2928932 L15.7071068,14.2928932 L13,11.585 L13,7 L12.9932723,6.88337887 C12.9355072,6.38604019 12.5128358,6 12,6 Z M5.70710678,1.29289322 C6.06759074,1.65337718 6.09532028,2.22060824 5.79029539,2.61289944 L5.70710678,2.70710678 L2.70710678,5.70710678 C2.31658249,6.09763107 1.68341751,6.09763107 1.29289322,5.70710678 C0.932409257,5.34662282 0.904679722,4.77939176 1.20970461,4.38710056 L1.29289322,4.29289322 L4.29289322,1.29289322 C4.68341751,0.902368927 5.31658249,0.902368927 5.70710678,1.29289322 Z M19.6128994,1.20970461 L19.7071068,1.29289322 L22.7071068,4.29289322 C23.0976311,4.68341751 23.0976311,5.31658249 22.7071068,5.70710678 C22.3466228,6.06759074 21.7793918,6.09532028 21.3871006,5.79029539 L21.2928932,5.70710678 L18.2928932,2.70710678 C17.9023689,2.31658249 17.9023689,1.68341751 18.2928932,1.29289322 C18.6533772,0.932409257 19.2206082,0.904679722 19.6128994,1.20970461 Z"/>
</svg>

<svg xmlns="http://www.w3.org/2000/svg" viewBox="0 0 24 24">
  <path d="M12 2a10 10 0 0 1 6.77 17.36l1.44 1.43a1 1 0 0 1-1.32 1.5l-.1-.08-1.63-1.64a9.95 9.95 0 0 1-10.32 0l-1.63 1.64a1 1 0 0 1-1.5-1.32l.08-.1 1.44-1.43A10 10 0 0 1 12 2zm0 4a1 1 0 0 0-1 1v5.13a1 1 0 0 0 .3.58l3 3 .09.08a1 1 0 0 0 1.32-.08l.08-.1a1 1 0 0 0-.08-1.32L13 11.6V6.88A1 1 0 0 0 12 6zM5.7 1.3a1 1 0 0 1 .1 1.3l-.08.1-3 3a1 1 0 0 1-1.5-1.32l.08-.1 3-3a1 1 0 0 1 1.42 0zm13.91-.09.1.08 3 3a1 1 0 0 1-1.32 1.5l-.1-.08-3-3a1 1 0 0 1 1.32-1.5z"/>
</svg>
